X:1
T: The Killaloe Boat
C:
R:Jig
Q:180
K:G
M:6/8
L:1/16
|:D2|E2A2A2 E2A2A2|B2A2B2 G4A2|B2e2e2 B2e2e2|d2B2A2 G2E2D2|
E2A2A2 E2A2A2|B2A2B2G4A2|B2e2e2 d2B2A2|B2G2G2G4:|
|:AB|d2e2f2 g2f2g2|d2B2A2G4A2|B2e2e2 B2e2e2|d2B2A2 G2E2D2|
E2A2A2 E2A2A2|B2A2B2G4A2|B2e2e2 d2B2A2|B2G2G2G4:|
